public/extensions/MetaMask_v10.22.2/images/fantom-opera.svg

<?xml version="1.0" encoding="UTF-8"?>
<svg width="1024px" height="1024px" viewBox="0 0 1024 1024" version="1.1" xmlns="http://www.w3.org/2000/svg" xmlns:xlink="http://www.w3.org/1999/xlink">
    <title>Fantom circle@2x</title>
    <g id="circle" stroke="none" stroke-width="1" fill="none" fill-rule="evenodd">
        <g id="Fantom-circle">
            <circle id="Oval" fill="#1969FF" cx="512" cy="512" r="512"></circle>
            <path d="M480.952632,162.820404 C498.202214,153.726532 524.449007,153.726532 541.698589,162.820404 L717.715301,255.615438 C728.104233,261.091936 733.809736,269.25319 734.831811,277.678216 L735,277.678216 L735,744.110155 C734.770819,753.300673 729.011717,762.429399 717.715301,768.384559 L541.698589,861.179741 C524.449007,870.27342 498.202214,870.27342 480.952632,861.179741 L304.936382,768.384559 C293.687466,762.4543 288.288954,753.261937 288.021607,744.110155 C287.994161,743.171274 287.991758,742.397481 288.020775,741.760186 L288.021607,280.818578 C287.995362,280.170216 287.995085,279.52462 288.02096,278.881791 L288.021607,277.678216 L288.100249,277.678216 C288.882053,269.16004 294.328618,261.207221 304.936382,255.615438 L480.952632,162.820404 Z M707,537 L541.644818,624.459967 C524.420262,633.571112 498.21155,633.571112 480.986994,624.459967 L316,537.194955 L316,742.669239 L480.986994,829.471349 C490.737056,834.688013 500.874684,839.770703 510.746553,839.992453 L511.315906,840 C521.168396,840.032183 530.733903,835.022485 540.433212,830.279812 L707,741.920834 L707,537 Z M260.423841,734 C260.423841,751.880605 262.483542,763.633063 266.573125,771.912197 C269.962755,778.774873 275.048664,784.019001 284.335203,790.400911 L284.865291,790.762639 C286.903313,792.149569 289.148339,793.602016 291.881192,795.308227 L295.103883,797.299574 L305,803.325293 L290.80629,827 L279.729986,820.250826 L277.868233,819.097358 C274.665666,817.102319 272.011205,815.389649 269.535301,813.704662 C243.068452,795.702251 233.197716,776.074834 233.002947,735.2439 L233,734 L260.423841,734 Z M498,413 C496.719282,413.440417 495.51884,413.951152 494.424509,414.530355 L318.676529,507.623888 C318.49208,507.721039 318.316212,507.818189 318.148833,507.91349 L318,507.999537 L318.275982,508.15868 L318.676529,508.376112 L494.424509,601.469645 C495.51884,602.048848 496.719282,602.559583 498,603 L498,413 Z M526,413 L526,603 C527.281635,602.559583 528.482071,602.048848 529.576397,601.469645 L705.322736,508.376112 C705.507277,508.278961 705.683513,508.181811 705.850522,508.08651 L706,507.999537 L705.724112,507.84132 L705.322736,507.623888 L529.576397,414.530355 C528.482071,413.951152 527.281635,413.440417 526,413 Z M707,311 L549,394 L707,477 L707,311 Z M316,311 L316,477 L474,394 L316,311 Z M529.422488,187.627114 C520.27514,182.790962 503.724952,182.790962 494.577605,187.627114 L318.677116,280.623711 C318.492507,280.721685 318.316486,280.817811 318.148962,280.913937 L318,280.999896 L318.276221,281.157949 L318.677116,281.376081 L494.577605,374.3724 C503.724952,379.2092 520.27514,379.2092 529.422488,374.3724 L705.322145,281.376081 C705.506847,281.278107 705.683237,281.181981 705.850392,281.086779 L706,280.999896 L705.723871,280.841843 L705.322145,280.623711 L529.422488,187.627114 Z M733.193821,197 L744.270251,203.749273 L746.131721,204.902466 C749.33418,206.896953 751.988718,208.610547 754.464885,210.294705 C780.931599,228.297503 790.802419,247.925124 790.997256,288.756099 L791,290 L763.576481,290 C763.576481,272.118455 761.516516,260.366907 757.426771,252.086842 C754.037707,245.224806 748.951824,239.980488 739.665515,233.599218 L739.134973,233.236751 C737.096961,231.850558 734.852221,230.398109 732.119016,228.691528 L728.896433,226.700086 L719,220.674731 L733.193821,197 Z" id="Shape" fill="#FFFFFF" fill-rule="nonzero"></path>
        </g>
    </g>
</svg>

<svg width="1024" height="1024" xmlns="http://www.w3.org/2000/svg"><g fill="none" fill-rule="evenodd"><circle fill="#1969FF" cx="512" cy="512" r="512"/><path d="M480.953 162.82c17.25-9.093 43.496-9.093 60.746 0l176.016 92.795c10.39 5.477 16.095 13.638 17.117 22.063H735V744.11c-.23 9.19-5.988 18.32-17.285 24.275L541.7 861.18c-17.25 9.093-43.497 9.093-60.746 0l-176.017-92.795c-11.249-5.93-16.647-15.123-16.914-24.275a32.372 32.372 0 0 1-.001-2.35V280.82a24 24 0 0 1 0-1.937v-1.204h.08c.781-8.518 6.228-16.47 16.835-22.063l176.017-92.795ZM707 537l-165.355 87.46c-17.225 9.111-43.433 9.111-60.658 0L316 537.195v205.474l164.987 86.802c9.75 5.217 19.888 10.3 29.76 10.521l.569.008c9.852.032 19.418-4.978 29.117-9.72L707 741.92V537ZM260.424 734c0 17.88 2.06 29.633 6.15 37.912 3.389 6.863 8.475 12.107 17.761 18.489l.53.362c2.038 1.387 4.283 2.839 7.016 4.545l3.223 1.992 9.896 6.025L290.806 827l-11.076-6.75-1.862-1.153c-3.202-1.995-5.857-3.707-8.333-5.392-26.467-18.003-36.337-37.63-36.532-78.461L233 734h27.424ZM498 413c-1.28.44-2.481.951-3.575 1.53l-175.748 93.094c-.185.097-.36.194-.528.29L318 508l.276.159.4.217 175.749 93.094c1.094.579 2.294 1.09 3.575 1.53V413Zm28 0v190a25.085 25.085 0 0 0 3.576-1.53l175.747-93.094c.184-.097.36-.194.528-.29L706 508l-.276-.159-.401-.217-175.747-93.094A25.085 25.085 0 0 0 526 413Zm181-102-158 83 158 83V311Zm-391 0v166l158-83-158-83Zm213.422-123.373c-9.147-4.836-25.697-4.836-34.844 0l-175.9 92.997c-.185.098-.362.194-.529.29L318 281l.276.158.401.218 175.9 92.996c9.148 4.837 25.698 4.837 34.845 0l175.9-92.996c.185-.098.361-.194.528-.29L706 281l-.276-.158-.402-.218-175.9-92.997ZM733.194 197l11.076 6.75 1.862 1.152c3.202 1.995 5.857 3.709 8.333 5.393 26.467 18.003 36.337 37.63 36.532 78.461L791 290h-27.424c0-17.882-2.06-29.633-6.15-37.913-3.388-6.862-8.474-12.107-17.76-18.488l-.531-.362a212.559 212.559 0 0 0-7.016-4.545l-3.223-1.992-9.896-6.025L733.194 197Z" fill="#FFF" fill-rule="nonzero"/></g></svg>
